material/.icons/material/podium-silver.svg

<svg xmlns="http://www.w3.org/2000/svg" viewBox="0 0 24 24"><path d="M20 10.09l2.45 1.49-.65-2.81L24 6.89l-2.89-.25L20 4l-1.13 2.64-2.87.25 2.18 1.88-.68 2.81 2.5-1.49M23 23h-6V13h6v10M1 17v6h6v-6H1m4 4H3v-2h2v2m4-11v13h6V10H9m4 11h-2v-9h2v9z"/></svg>

<?xml version="1.0" encoding="UTF-8"?><!DOCTYPE svg PUBLIC "-//W3C//DTD SVG 1.1//EN" "http://www.w3.org/Graphics/SVG/1.1/DTD/svg11.dtd"><svg xmlns="http://www.w3.org/2000/svg" xmlns:xlink="http://www.w3.org/1999/xlink" version="1.1" id="mdi-podium-silver" width="24" height="24" viewBox="0 0 24 24"><path d="M20,10.09L22.45,11.58L21.8,8.77L24,6.89L21.11,6.64L20,4L18.87,6.64L16,6.89L18.18,8.77L17.5,11.58L20,10.09M23,23H17V13H23V23M1,17V23H7V17H1M5,21H3V19H5V21M9,10V23H15V10H9M13,21H11V12H13V21Z" /></svg>
